assets/img/imagenesMiTrayectoria/proximamente.svg

<svg width="469" height="304" viewBox="0 0 469 304" fill="none" xmlns="http://www.w3.org/2000/svg">
<g clip-path="url(#clip0_1033_8813)">
<g opacity="0.6">
<rect width="467.402" height="310.596" transform="translate(0.761719 0.636719)" fill="#292726"/>
</g>
<path d="M272.775 312.856C264.645 312.856 257.725 310.001 252.015 304.291C246.304 298.581 243.449 291.667 243.449 283.549V124.398C243.449 116.292 246.304 109.378 252.015 103.656C257.725 97.9453 264.645 95.0902 272.775 95.0902H297.891V58.7958C297.891 38.5798 304.938 21.4307 319.032 7.34851C333.114 -6.74581 350.264 -13.793 370.48 -13.793C390.695 -13.793 407.851 -6.74581 421.945 7.34851C436.039 21.4428 443.08 38.5919 443.068 58.7958V95.0902H468.202C476.308 95.0902 483.222 97.9453 488.944 103.656C494.655 109.366 497.51 116.286 497.51 124.416V283.549C497.51 291.654 494.655 298.569 488.944 304.291C483.234 310.001 476.32 312.856 468.202 312.856H272.775ZM272.775 294.709H468.202C471.457 294.709 474.13 293.663 476.223 291.57C478.316 289.477 479.363 286.803 479.363 283.549V124.398C479.363 121.143 478.316 118.47 476.223 116.377C474.13 114.284 471.457 113.237 468.202 113.237H272.757C269.503 113.237 266.829 114.284 264.736 116.377C262.643 118.47 261.596 121.15 261.596 124.416V283.549C261.596 286.803 262.643 289.477 264.736 291.57C266.829 293.663 269.509 294.709 272.775 294.709ZM370.48 231.194C378.138 231.194 384.586 228.569 389.824 223.318C395.075 218.08 397.7 211.631 397.7 203.973C397.7 196.315 395.075 189.867 389.824 184.628C384.574 179.39 378.126 176.765 370.48 176.753C362.834 176.74 356.385 179.366 351.135 184.628C345.884 189.867 343.259 196.315 343.259 203.973C343.259 211.631 345.884 218.08 351.135 223.318C356.373 228.569 362.821 231.194 370.48 231.194ZM316.038 95.0902H424.921V58.7958C424.921 43.6731 419.628 30.8189 409.042 20.233C398.456 9.64715 385.602 4.35422 370.48 4.35422C355.357 4.35422 342.503 9.64715 331.917 20.233C321.331 30.8189 316.038 43.6731 316.038 58.7958V95.0902Z" fill="white"/>
<path d="M43.3225 137.227V94.4133H61.8545C65.6873 94.4133 68.9901 95.0453 71.7627 96.3094C74.5354 97.5326 76.6761 99.3063 78.1847 101.63C79.6934 103.955 80.4477 106.727 80.4477 109.948C80.4477 113.129 79.6934 115.881 78.1847 118.205C76.6761 120.529 74.5354 122.323 71.7627 123.587C68.9901 124.811 65.6873 125.422 61.8545 125.422H48.8271L53.2307 120.958V137.227H43.3225ZM53.2307 122.058L48.8271 117.349H61.3041C64.3622 117.349 66.6455 116.697 68.1542 115.392C69.6628 114.087 70.4172 112.273 70.4172 109.948C70.4172 107.584 69.6628 105.749 68.1542 104.444C66.6455 103.139 64.3622 102.487 61.3041 102.487H48.8271L53.2307 97.7772V122.058ZM86.7889 137.227V104.322H95.902V113.618L94.6176 110.927C95.5962 108.603 97.166 106.85 99.3271 105.667C101.488 104.444 104.118 103.832 107.217 103.832V112.64C106.809 112.599 106.442 112.578 106.116 112.578C105.79 112.538 105.443 112.517 105.076 112.517C102.467 112.517 100.346 113.272 98.7155 114.78C97.1253 116.248 96.3302 118.552 96.3302 121.691V137.227H86.7889ZM128.309 137.716C124.802 137.716 121.683 136.982 118.951 135.514C116.26 134.046 114.119 132.048 112.529 129.52C110.98 126.951 110.205 124.036 110.205 120.774C110.205 117.471 110.98 114.556 112.529 112.028C114.119 109.459 116.26 107.461 118.951 106.034C121.683 104.566 124.802 103.832 128.309 103.832C131.775 103.832 134.873 104.566 137.605 106.034C140.337 107.461 142.478 109.439 144.027 111.967C145.577 114.495 146.351 117.431 146.351 120.774C146.351 124.036 145.577 126.951 144.027 129.52C142.478 132.048 140.337 134.046 137.605 135.514C134.873 136.982 131.775 137.716 128.309 137.716ZM128.309 129.887C129.899 129.887 131.326 129.52 132.59 128.786C133.854 128.052 134.853 127.013 135.587 125.667C136.321 124.281 136.688 122.65 136.688 120.774C136.688 118.858 136.321 117.227 135.587 115.881C134.853 114.536 133.854 113.496 132.59 112.762C131.326 112.028 129.899 111.661 128.309 111.661C126.718 111.661 125.291 112.028 124.027 112.762C122.763 113.496 121.744 114.536 120.969 115.881C120.235 117.227 119.868 118.858 119.868 120.774C119.868 122.65 120.235 124.281 120.969 125.667C121.744 127.013 122.763 128.052 124.027 128.786C125.291 129.52 126.718 129.887 128.309 129.887ZM122.621 100.101L130.877 91.2941H141.153L130.082 100.101H122.621ZM147.555 137.227L162.295 117.899L162.111 123.159L147.983 104.322H158.686L167.616 116.615L163.579 116.737L172.814 104.322H182.967L168.778 122.976V117.838L183.457 137.227H172.631L163.273 124.138L167.249 124.688L157.952 137.227H147.555ZM188.088 137.227V104.322H197.629V137.227H188.088ZM192.859 99.7344C191.105 99.7344 189.678 99.2247 188.577 98.2054C187.476 97.186 186.926 95.922 186.926 94.4133C186.926 92.9047 187.476 91.6407 188.577 90.6213C189.678 89.6019 191.105 89.0923 192.859 89.0923C194.612 89.0923 196.039 89.5816 197.14 90.5601C198.241 91.498 198.791 92.7212 198.791 94.2299C198.791 95.8201 198.241 97.1452 197.14 98.2054C196.08 99.2247 194.653 99.7344 192.859 99.7344ZM248.625 103.832C251.234 103.832 253.538 104.362 255.536 105.422C257.575 106.442 259.165 108.032 260.307 110.193C261.489 112.313 262.08 115.045 262.08 118.389V137.227H252.539V119.857C252.539 117.206 251.989 115.249 250.888 113.985C249.787 112.721 248.237 112.089 246.24 112.089C244.853 112.089 243.61 112.415 242.509 113.068C241.408 113.679 240.551 114.617 239.94 115.881C239.328 117.145 239.022 118.756 239.022 120.713V137.227H229.481V119.857C229.481 117.206 228.931 115.249 227.83 113.985C226.77 112.721 225.241 112.089 223.243 112.089C221.856 112.089 220.613 112.415 219.512 113.068C218.411 113.679 217.555 114.617 216.943 115.881C216.331 117.145 216.026 118.756 216.026 120.713V137.227H206.484V104.322H215.597V113.312L213.885 110.682C215.027 108.44 216.637 106.748 218.717 105.606C220.837 104.423 223.243 103.832 225.934 103.832C228.951 103.832 231.581 104.607 233.824 106.156C236.107 107.665 237.616 109.989 238.35 113.129L234.986 112.211C236.087 109.643 237.84 107.604 240.246 106.095C242.692 104.587 245.485 103.832 248.625 103.832ZM290.816 137.227V130.805L290.204 129.398V117.899C290.204 115.861 289.572 114.271 288.308 113.129C287.085 111.987 285.189 111.416 282.62 111.416C280.867 111.416 279.134 111.702 277.421 112.273C275.75 112.803 274.323 113.537 273.14 114.474L269.715 107.808C271.509 106.544 273.67 105.565 276.198 104.872C278.726 104.179 281.295 103.832 283.905 103.832C288.92 103.832 292.814 105.015 295.587 107.38C298.359 109.745 299.746 113.435 299.746 118.45V137.227H290.816ZM280.785 137.716C278.217 137.716 276.015 137.288 274.18 136.431C272.345 135.534 270.938 134.332 269.96 132.823C268.981 131.314 268.492 129.622 268.492 127.746C268.492 125.789 268.961 124.077 269.899 122.609C270.877 121.141 272.406 119.999 274.486 119.184C276.565 118.328 279.277 117.899 282.62 117.899H291.366V123.465H283.66C281.417 123.465 279.868 123.832 279.012 124.566C278.196 125.3 277.788 126.217 277.788 127.318C277.788 128.542 278.257 129.52 279.195 130.254C280.174 130.947 281.499 131.294 283.171 131.294C284.761 131.294 286.188 130.927 287.452 130.193C288.716 129.418 289.633 128.297 290.204 126.829L291.672 131.233C290.979 133.353 289.715 134.964 287.88 136.064C286.045 137.165 283.68 137.716 280.785 137.716ZM84.7902 178.832C87.3998 178.832 89.7035 179.362 91.7015 180.422C93.7402 181.442 95.3304 183.032 96.4721 185.193C97.6545 187.313 98.2458 190.045 98.2458 193.389V212.227H88.7045V194.857C88.7045 192.206 88.1541 190.249 87.0532 188.985C85.9523 187.721 84.4028 187.089 82.4049 187.089C81.0185 187.089 79.7749 187.415 78.674 188.068C77.5731 188.679 76.7168 189.617 76.1052 190.881C75.4936 192.145 75.1878 193.756 75.1878 195.713V212.227H65.6466V194.857C65.6466 192.206 65.0961 190.249 63.9952 188.985C62.9351 187.721 61.406 187.089 59.4081 187.089C58.0217 187.089 56.7781 187.415 55.6772 188.068C54.5763 188.679 53.72 189.617 53.1084 190.881C52.4968 192.145 52.191 193.756 52.191 195.713V212.227H42.6497V179.322H51.7628V188.312L50.0503 185.682C51.192 183.44 52.8026 181.748 54.8821 180.606C57.0024 179.423 59.4081 178.832 62.0992 178.832C65.1165 178.832 67.7464 179.607 69.989 181.156C72.2724 182.665 73.7811 184.989 74.515 188.129L71.1511 187.211C72.252 184.643 74.0053 182.604 76.411 181.095C78.8575 179.587 81.6505 178.832 84.7902 178.832ZM123.367 212.716C119.616 212.716 116.313 211.982 113.459 210.514C110.645 209.046 108.464 207.048 106.914 204.52C105.365 201.951 104.59 199.036 104.59 195.774C104.59 192.471 105.345 189.556 106.853 187.028C108.403 184.459 110.503 182.461 113.153 181.034C115.803 179.566 118.8 178.832 122.144 178.832C125.365 178.832 128.26 179.525 130.829 180.912C133.438 182.257 135.497 184.214 137.006 186.783C138.515 189.311 139.269 192.349 139.269 195.896C139.269 196.263 139.249 196.691 139.208 197.181C139.167 197.629 139.126 198.057 139.086 198.465H112.358V192.899H134.07L130.401 194.551C130.401 192.838 130.054 191.35 129.361 190.086C128.668 188.822 127.709 187.843 126.486 187.15C125.263 186.416 123.836 186.049 122.205 186.049C120.574 186.049 119.126 186.416 117.862 187.15C116.639 187.843 115.681 188.842 114.988 190.147C114.295 191.411 113.948 192.92 113.948 194.673V196.141C113.948 197.935 114.335 199.525 115.11 200.912C115.926 202.257 117.047 203.297 118.474 204.031C119.942 204.724 121.654 205.071 123.612 205.071C125.365 205.071 126.894 204.806 128.199 204.276C129.544 203.745 130.768 202.95 131.868 201.89L136.945 207.395C135.436 209.107 133.54 210.432 131.257 211.37C128.973 212.267 126.344 212.716 123.367 212.716ZM165.621 178.832C168.231 178.832 170.555 179.362 172.594 180.422C174.673 181.442 176.304 183.032 177.487 185.193C178.669 187.313 179.26 190.045 179.26 193.389V212.227H169.719V194.857C169.719 192.206 169.128 190.249 167.945 188.985C166.804 187.721 165.173 187.089 163.052 187.089C161.544 187.089 160.178 187.415 158.955 188.068C157.772 188.679 156.834 189.637 156.141 190.942C155.489 192.247 155.163 193.919 155.163 195.958V212.227H145.621V179.322H154.734V188.435L153.022 185.682C154.204 183.481 155.896 181.788 158.098 180.606C160.3 179.423 162.808 178.832 165.621 178.832ZM201.364 212.716C197.491 212.716 194.474 211.737 192.313 209.78C190.151 207.782 189.071 204.826 189.071 200.912V172.043H198.612V200.789C198.612 202.176 198.979 203.256 199.713 204.031C200.447 204.765 201.446 205.132 202.71 205.132C204.219 205.132 205.503 204.724 206.563 203.909L209.132 210.636C208.153 211.33 206.971 211.86 205.585 212.227C204.239 212.553 202.832 212.716 201.364 212.716ZM183.995 187.395V180.055H206.808V187.395H183.995ZM229.803 212.716C226.052 212.716 222.749 211.982 219.895 210.514C217.081 209.046 214.9 207.048 213.35 204.52C211.801 201.951 211.026 199.036 211.026 195.774C211.026 192.471 211.78 189.556 213.289 187.028C214.839 184.459 216.938 182.461 219.589 181.034C222.239 179.566 225.236 178.832 228.58 178.832C231.801 178.832 234.696 179.525 237.265 180.912C239.874 182.257 241.933 184.214 243.442 186.783C244.95 189.311 245.705 192.349 245.705 195.896C245.705 196.263 245.684 196.691 245.644 197.181C245.603 197.629 245.562 198.057 245.521 198.465H218.794V192.899H240.506L236.836 194.551C236.836 192.838 236.49 191.35 235.797 190.086C235.103 188.822 234.145 187.843 232.922 187.15C231.699 186.416 230.272 186.049 228.641 186.049C227.01 186.049 225.562 186.416 224.298 187.15C223.075 187.843 222.117 188.842 221.424 190.147C220.73 191.411 220.384 192.92 220.384 194.673V196.141C220.384 197.935 220.771 199.525 221.546 200.912C222.361 202.257 223.483 203.297 224.91 204.031C226.378 204.724 228.09 205.071 230.047 205.071C231.801 205.071 233.33 204.806 234.635 204.276C235.98 203.745 237.203 202.95 238.304 201.89L243.381 207.395C241.872 209.107 239.976 210.432 237.693 211.37C235.409 212.267 232.779 212.716 229.803 212.716Z" fill="#292726"/>
</g>
<defs>
<clipPath id="clip0_1033_8813">
<rect width="467.582" height="303" fill="white" transform="translate(0.761719 0.638672)"/>
</clipPath>
</defs>
</svg>

<svg xmlns="http://www.w3.org/2000/svg" width="469" height="304" fill="none"><g clip-path="url(#a)"><path fill="#292726" d="M.762.637h467.402v310.596H.762z" opacity=".6"/><path fill="#fff" d="M272.775 312.856q-12.195 0-20.76-8.565t-8.566-20.742V124.398q0-12.159 8.566-20.742 8.565-8.566 20.76-8.566h25.116V58.796q0-30.324 21.141-51.447 21.123-21.142 51.448-21.142 30.323 0 51.465 21.142 21.141 21.141 21.123 51.447V95.09h25.134q12.159 0 20.742 8.566 8.566 8.565 8.566 20.76v159.133q0 12.158-8.566 20.742-8.565 8.565-20.742 8.565zm0-18.147h195.427q4.882 0 8.021-3.139 3.14-3.14 3.14-8.021V124.398q0-4.882-3.14-8.021-3.139-3.14-8.021-3.14H272.757q-4.881 0-8.021 3.14t-3.14 8.039v159.133q0 4.881 3.14 8.021t8.039 3.139m97.705-63.515q11.487 0 19.344-7.876 7.876-7.857 7.876-19.345t-7.876-19.345-19.344-7.875q-11.47-.019-19.345 7.875-7.876 7.858-7.876 19.345 0 11.488 7.876 19.345 7.857 7.876 19.345 7.876M316.038 95.09h108.883V58.796q0-22.684-15.879-38.563T370.48 4.354q-22.684 0-38.563 15.879t-15.879 38.563z"/><path fill="#292726" d="M43.323 137.227V94.413h18.532q5.748 0 9.908 1.896 4.158 1.835 6.422 5.321 2.263 3.487 2.263 8.318 0 4.771-2.263 8.257t-6.422 5.382q-4.16 1.835-9.909 1.835H48.828l4.404-4.464v16.269zm9.908-15.169-4.404-4.709h12.477q4.587 0 6.85-1.957t2.263-5.444q0-3.546-2.263-5.504t-6.85-1.957H48.827l4.404-4.71zm33.558 15.169v-32.905h9.113v9.296l-1.284-2.691q1.467-3.486 4.71-5.26 3.24-1.835 7.889-1.835v8.808a11 11 0 0 0-1.101-.062 9 9 0 0 0-1.04-.061q-3.914 0-6.36 2.263-2.385 2.202-2.386 6.911v15.536zm41.52.489q-5.26 0-9.358-2.202-4.037-2.202-6.422-5.994-2.324-3.853-2.324-8.746 0-4.954 2.324-8.746 2.385-3.853 6.422-5.994 4.098-2.202 9.358-2.202 5.199 0 9.296 2.202 4.098 2.14 6.422 5.933 2.325 3.792 2.324 8.807 0 4.893-2.324 8.746-2.324 3.792-6.422 5.994t-9.296 2.202m0-7.829q2.385 0 4.281-1.101t2.997-3.119q1.101-2.079 1.101-4.893 0-2.874-1.101-4.893t-2.997-3.119q-1.896-1.101-4.281-1.101-2.386 0-4.282 1.101t-3.058 3.119q-1.101 2.019-1.101 4.893 0 2.814 1.101 4.893 1.162 2.018 3.058 3.119t4.282 1.101m-5.688-29.786 8.256-8.807h10.276l-11.071 8.807zm24.934 37.126 14.74-19.328-.184 5.26-14.128-18.837h10.703l8.93 12.293-4.037.122 9.235-12.415h10.153l-14.189 18.654v-5.138l14.679 19.389h-10.826l-9.358-13.089 3.976.55-9.297 12.539zm40.533 0v-32.905h9.541v32.905zm4.771-37.493q-2.63 0-4.282-1.529-1.651-1.529-1.651-3.792t1.651-3.792q1.651-1.53 4.282-1.529 2.63 0 4.281 1.468 1.651 1.407 1.651 3.67 0 2.385-1.651 3.975-1.59 1.53-4.281 1.53m55.766 4.098q3.914 0 6.911 1.59 3.058 1.53 4.771 4.771 1.773 3.18 1.773 8.196v18.838h-9.541v-17.37q0-3.976-1.651-5.872t-4.648-1.896q-2.08 0-3.731.979-1.652.917-2.569 2.813-.918 1.896-.918 4.832v16.514h-9.541v-17.37q0-3.976-1.651-5.872-1.59-1.896-4.587-1.896-2.08 0-3.731.979-1.651.917-2.569 2.813t-.917 4.832v16.514h-9.542v-32.905h9.113v8.99l-1.712-2.63q1.713-3.363 4.832-5.076 3.18-1.774 7.217-1.774 4.525 0 7.89 2.324 3.425 2.263 4.526 6.973l-3.364-.918q1.651-3.852 5.26-6.116 3.669-2.262 8.379-2.263m42.191 33.395v-6.422l-.612-1.407v-11.499q0-3.057-1.896-4.77-1.835-1.713-5.688-1.713-2.63 0-5.199.857-2.507.795-4.281 2.201l-3.425-6.666q2.691-1.896 6.483-2.936a29 29 0 0 1 7.707-1.04q7.522 0 11.682 3.548 4.159 3.547 4.159 11.07v18.777zm-10.031.489q-3.852 0-6.605-1.285-2.753-1.345-4.22-3.608-1.468-2.263-1.468-5.077 0-2.935 1.407-5.137 1.467-2.202 4.587-3.425 3.119-1.284 8.134-1.285h8.746v5.566h-7.706q-3.364 0-4.648 1.101-1.224 1.1-1.224 2.752 0 1.836 1.407 2.936 1.468 1.04 3.976 1.04 2.385 0 4.281-1.101 1.896-1.162 2.752-3.364l1.468 4.404q-1.04 3.18-3.792 4.831t-7.095 1.652M84.79 178.832q3.915 0 6.911 1.59 3.06 1.53 4.771 4.771 1.774 3.18 1.774 8.196v18.838h-9.541v-17.37q0-3.976-1.652-5.872-1.65-1.896-4.648-1.896-2.08 0-3.731.979-1.65.917-2.569 2.813-.917 1.896-.917 4.832v16.514h-9.541v-17.37q0-3.976-1.652-5.872-1.59-1.896-4.587-1.896-2.08 0-3.73.979-1.652.917-2.57 2.813t-.917 4.832v16.514H42.65v-32.905h9.113v8.99l-1.713-2.63q1.713-3.363 4.832-5.076 3.18-1.774 7.217-1.774 4.526 0 7.89 2.324 3.425 2.263 4.526 6.973l-3.364-.918q1.651-3.852 5.26-6.116 3.67-2.263 8.38-2.263m38.577 33.884q-5.627 0-9.908-2.202-4.22-2.202-6.545-5.994-2.324-3.853-2.324-8.746 0-4.954 2.263-8.746a16.2 16.2 0 0 1 6.3-5.994q3.975-2.202 8.991-2.202 4.831 0 8.685 2.08 3.913 2.017 6.177 5.871 2.263 3.792 2.263 9.113 0 .55-.061 1.285-.062.672-.122 1.284h-26.728v-5.566h21.712l-3.669 1.652q0-2.57-1.04-4.465a7.4 7.4 0 0 0-2.875-2.936q-1.835-1.101-4.281-1.101-2.447 0-4.343 1.101-1.834 1.04-2.874 2.997-1.04 1.896-1.04 4.526v1.468q0 2.69 1.162 4.771a8.3 8.3 0 0 0 3.364 3.119q2.202 1.04 5.138 1.04 2.63 0 4.587-.795 2.018-.796 3.669-2.386l5.077 5.505q-2.263 2.568-5.688 3.975-3.425 1.346-7.89 1.346m42.254-33.884q3.915 0 6.973 1.59 3.119 1.53 4.893 4.771 1.773 3.18 1.773 8.196v18.838h-9.541v-17.37q0-3.976-1.774-5.872-1.712-1.896-4.893-1.896-2.262 0-4.097.979-1.775.917-2.814 2.874-.978 1.958-.978 5.016v16.269h-9.542v-32.905h9.113v9.113l-1.712-2.753a12.2 12.2 0 0 1 5.076-5.076q3.303-1.774 7.523-1.774m35.743 33.884q-5.81 0-9.051-2.936-3.243-2.997-3.242-8.868v-28.869h9.541v28.746q0 2.08 1.101 3.242 1.101 1.101 2.997 1.101 2.263 0 3.853-1.223l2.569 6.727q-1.468 1.04-3.547 1.591a18 18 0 0 1-4.221.489m-17.369-25.321v-7.34h22.813v7.34zm45.808 25.321q-5.627 0-9.908-2.202-4.22-2.202-6.545-5.994-2.324-3.853-2.324-8.746 0-4.954 2.263-8.746a16.2 16.2 0 0 1 6.3-5.994q3.975-2.202 8.991-2.202 4.832 0 8.685 2.08 3.913 2.017 6.177 5.871 2.262 3.792 2.263 9.113 0 .55-.061 1.285-.062.672-.123 1.284h-26.727v-5.566h21.712l-3.67 1.652q0-2.57-1.039-4.465-1.04-1.896-2.875-2.936-1.834-1.101-4.281-1.101t-4.343 1.101q-1.835 1.04-2.874 2.997-1.04 1.896-1.04 4.526v1.468q0 2.69 1.162 4.771 1.223 2.018 3.364 3.119 2.202 1.04 5.137 1.04 2.63 0 4.588-.795 2.018-.796 3.669-2.386l5.077 5.505q-2.263 2.568-5.688 3.975-3.426 1.346-7.89 1.346"/></g><defs><clipPath id="a"><path fill="#fff" d="M.762.639h467.582v303H.762z"/></clipPath></defs></svg>
